X:27
T: (hangszeres)
K: F
M: 2/4
L: 1/4
Gg | g f/d/ | g a | f2 | 
d f | f e/d/ | f a | B2 | 
f/e/ f | d/A/B | cA | B2 | 
f/e/ f | F/A/B | dd | G2 | 

